X:1
T:Title
%%score 1 { ( 2 3 ) | ( 4 5 ) }
L:1/8
Q:1/4=100
M:4/4
K:Ab
V:1 treble nm="Akkordion"
V:2 bass nm="Grand Piano"
V:3 bass 
V:4 bass 
V:5 bass 
V:1
 E2 A2 A>G A>c | B4 F4 | G2 F2 E>d c>B | c6 z2 | E2 A2 A>G A>c | B4 F4 | G2 F2 Ed c>B | A6 z2 | %8
w: P.~P.~Bliss * * * * *||||||||
 A2 F2 F>G A>B | c4 G4 | A2 F2 F>G A>c | B8 | E2 A2 A>G A>c | B4 F4 |[M:5/4] G2 F2 Ed c>B- B2 | %15
w: |||||||
[M:4/4] A6 z2 | z8 | z8 | z8 | z8 | z8 | z8 |[M:17/16] z17/2 |[M:4/4] z8 |] %24
w: |||||||||
V:2
 z2 E2 E2 E2 | z2[K:treble] F2 F2 F2 | z2 G2[K:bass] z2 G2 | z2[K:treble] A2 A2 A2 | z2 E2 E2 E2 | %5
 z2[K:treble] F2 F2 F2 | z2 G2 z2 G2 | z2 A2 A2 A2 | z C[K:treble]AC[K:bass] z C[K:treble]AC | %9
 .C2 GC .C2 GC | z C[K:treble]AC[K:bass] z B,[K:treble]AB, | z2 G2 GFED | z2 E2 E2 E2 | %13
 z2[K:treble] F2 F2 F2 |[M:5/4] z2 G2 [DEG]6 |[M:4/4][K:bass] z2[K:treble] A2 A2 A2 | %16
 [FA]2 [Fd]2 [Fd]>[Fd] [FA]>[FB] | [=Ec]4 [EG]4 | A2 F2 [=DF]>[DG] [DA]>[Dc] | B6 z2 | %20
 C2- [CA]2 A>G [CA]>[Ec] | B4 F4 |[M:17/16] G-<GF-<FEd3/2c>B |[M:4/4] [CA]8 |] %24
V:3
 A,,6 z2 | D,6[K:treble] z2 | E,4[K:bass] E,4 | A,,6[K:treble] z2 | A,,6 z2 | D,6[K:treble] z2 | %6
 E,4 E,4 | A,6 z2 | F,4[K:treble][K:bass] F,4[K:treble] | x8 | %10
 F,4[K:treble][K:bass] B,,4[K:treble] | E,4 z4 | A,,6 z2 | D,6[K:treble] z2 |[M:5/4] E,4 z2 z4 | %15
[M:4/4][K:bass] A,,6[K:treble] z2 | x8 | x8 | x8 | z2 EE GFED | [A,E]2 z2 C2 z2 | x8 | %22
[M:17/16] x17/2 |[M:4/4] x8 |] %24
V:4
 z2 C2 C2 C2 | z2 D2 D2 D2 | z2 [CDE]2 z2 [CDE]2 | z2 [CE]2 [CE]2 [CE]2 | z2 C2 C2 C2 | %5
 z2 D2 D2 D2 | z2 [B,DE]2 z2 [B,DE]2 | z2 [CE]2 [CE]2 [CE]2 | z2 .F2 z2 .F2 | z2 .=E2 z2 .E2 | %10
 z2 .F2 z2 .[=DF]2 | z2 [B,E]2 E,D,C,B,, | z2 C2 C2 C2 | z2 D2 D2 D2 |[M:5/4] z2 [DE]2 [E,,E,]6 | %15
[M:4/4] z2 [CE]2 [CE]2 [CE]2 | [D,A,]2 [D,A,]2 [D,A,]>[D,A,] [D,F,]>[D,F,] | [C,G,]4 [C,C]4 | %18
 [F,CF]2 [F,A,]2 [B,,A,]>[B,,G,] [B,,F,]>[B,,A,] | [E,E]2 z2 z4 | z2 E,2 E,>E, [A,,E,]>[A,,E,] | %21
 [D,F,D]4 [D,B,D]4 |[M:17/16] [E,B,]-<[E,B,][E,A,E]-<[E,A,E][E,G,][E,B,E]3/2[E,A,E]>[E,D] | %23
[M:4/4] [A,,E,]8 |] %24
V:5
 A,,,6 z2 | D,,6 z2 | E,,4 E,,4 | A,,,6 z2 | A,,,6 z2 | D,,6 z2 | E,,4 E,,4 | A,,6 z2 | F,,4 F,,4 | %9
 [C,,C,]4 [C,,C,]4 | F,,4 B,,,4 | E,,4 z4 | A,,,6 z2 | D,,6 z2 |[M:5/4] E,,4 z2 z4 | %15
[M:4/4] A,,,6 z2 | x8 | x8 | x8 | G,2- [E,G,-][E,G,-] [E,G,-][D,G,]C,B,, | A,,4 A,,2 z2 | x8 | %22
[M:17/16] x17/2 |[M:4/4] x8 |] %24

